X:18823
T:Wind that Shakes the Barley, The
R:reel
S:Brendan Mulvihill
Z:Devin McCabe
M:C|
L:1/8
Q:230
K:D
A3B AFEF|DBBA BcdB|A~F3 AFDf|gfed BcdB|
!A/2B/2A FA d2cA|B2EF GEFE|D~F3 EFDf|gfed Bcde|
!~f3a ~g3e|f2ed BcdB|A~f3 gefg|afed BcdB|
!A~f3 gfeg|fegf edBc|defg a~f3|gfed BAdB||


